X: 36725
T: Sheep In The Boat, The
R: jig
M: 6/8
K: Adorian
|:EAB cBA|~B3 gab|age edB|dBA BAG|
EAB cBA|~B3 gab|age edB|dBe A3:|
|:a3 aba|gef gab|age edB|dBA BAG|
[1 A2a aba|gef gab|age edB|dBe A3:|
[2 EAB cBA|~B3 gab|age edB|dBe A3||

